X: 3
T: Rights of Man
C: Irish
M: C|
N: From the Roaring Jelly collection.
R: hornpipe
K: Em
GA |\
"Em"BcAB GAFG | EFGA B2ef | gfed edcB | "Am"cBAG (3A/B/A/ GA |
"Em"BcAB GAFG | EFGA B2ef | gfed "Bm"Bgfg | "Em"e2E2 E2 :|
|: ga |\
"Em"bgbg efga | bgbg e2fg | "D"afaf defg | afaf d2dd |
"Em"eAfA gAaA | bAaA gAfA | gfed "Bm"Bgfg | "Em"e2E2 E2 :|

%%sep 1 1 500
%%sep 1 1 500

